src/assets/services/recording-03.svg

<svg width="24" height="24" viewBox="0 0 24 24" fill="none" xmlns="http://www.w3.org/2000/svg">
<path fill-rule="evenodd" clip-rule="evenodd" d="M12 1C5.92487 1 1 5.92487 1 12C1 18.0751 5.92487 23 12 23C18.0751 23 23 18.0751 23 12C23 5.92487 18.0751 1 12 1ZM14 6C14.5523 6 15 6.44772 15 7V17C15 17.5523 14.5523 18 14 18C13.4477 18 13 17.5523 13 17V7C13 6.44772 13.4477 6 14 6ZM11 9C11 8.44772 10.5523 8 10 8C9.44771 8 9 8.44772 9 9V15C9 15.5523 9.44772 16 10 16C10.5523 16 11 15.5523 11 15V9ZM7 11C7 10.4477 6.55228 10 6 10C5.44772 10 5 10.4477 5 11V13C5 13.5523 5.44772 14 6 14C6.55228 14 7 13.5523 7 13V11ZM19 11C19 10.4477 18.5523 10 18 10C17.4477 10 17 10.4477 17 11V13C17 13.5523 17.4477 14 18 14C18.5523 14 19 13.5523 19 13V11Z" fill="white"/>
</svg>

<svg xmlns="http://www.w3.org/2000/svg" width="24" height="24" fill="none"><path fill="#fff" fill-rule="evenodd" d="M12 1C5.925 1 1 5.925 1 12s4.925 11 11 11 11-4.925 11-11S18.075 1 12 1Zm2 5a1 1 0 0 1 1 1v10a1 1 0 1 1-2 0V7a1 1 0 0 1 1-1Zm-3 3a1 1 0 1 0-2 0v6a1 1 0 1 0 2 0V9Zm-4 2a1 1 0 1 0-2 0v2a1 1 0 1 0 2 0v-2Zm12 0a1 1 0 1 0-2 0v2a1 1 0 1 0 2 0v-2Z" clip-rule="evenodd"/></svg>
